!!!COM: Anon.
!!!OTL: Let Us Go
!!!ODT: <1918//
!!!MPN: Matsiwirus [Pine Wood, Pan]
!!!MLC: Fort Berthold Reservation, North Dakota, United States of America
!! Song was recorded during either the summer of 1912, 1915, or 1918.
!!!AGN: monody
!!!AST: Hidatsa Stone Hammer Society
!!!AMT: irregular
!!!RWG: Transcribed pitches, durations, and meters are only approximate.
!! Drum Tempo: MM120
!! Drum-rhythm: (4 4 4 4)
**kern
*ICvox
*Imale
*clefF4
*k[f#c#g#d#]
*M2/4
*MM120
8G#
=1
4.G#
8F#
=2
4G#
4G#
=3
[2G#
=4
2G#]
=5
16G#
8.B
4B
=6
2B
=7
4.A#
8F#
=8
2A#
*M3/4
=9
4.B^
8G#
4G#
=10
2.F#^
=11
4.G#
8B
4G#
=12
4.F#
8G#
4F#
=13
8.E
16E
4.E
8F#
*M2/4
=14
4E
8.E
16E
=15
[2E
=16
2E]
=17
8.r
16G#
8.B
16G#
=18
[2B
=19
2B]
=20
8B
8c#
8c#
8c#
=21
2B
=22
16G#
[8.B
4B]
=23
8B
8B
8G#
8B
=24
8B
8G#
4G#
=25
2F#^
*M3/4
=26
4.G#
8B
4G#
=27
4.F#
8G#
4F#
=28
8.E
16E
4.E
8F#
*M2/4
=29
4E
8.E
16E
=30
2E
==
*-
!!!CNT: Hidatsa
!!!TXO: Hidatsa
!!!OCY: United States
!!!OCL: Frances Densmore
!!!YOR: Frances Densmore, "Mandan and Hidatsa Music",
!!!YOR: Bulletin 80, page 118, No. 48
!!!PPR: Smithsonian Institution, Bureau of American Ethnology
!!!PPR: Government Printing Office
!!!PDT: 1923
!!!PPP: Washington, DC, United States of America
!!!YEC: Electronic Copyright 2000 David Huron
!!!YER: August 2000
!!!YEN: United States of America
!!!ENC: David Huron
!!!RDT: August 17, 2000
!!!EEV: Release 1.0
!!!AIN: tom, vox
